_includes/icons/ios-add-2.svg

<svg fill="#666" height="50" viewBox="0 0 50 50" width="50" xmlns="http://www.w3.org/2000/svg"><path d="m24 9v15h-15v2h15v15h2v-15h15v-2h-15v-15z"/></svg>

<svg xmlns="http://www.w3.org/2000/svg" viewBox="0 0 50 50" width="50" height="50" fill="#666"><path d="M 24 9 L 24 24 L 9 24 L 9 26 L 24 26 L 24 41 L 26 41 L 26 26 L 41 26 L 41 24 L 26 24 L 26 9 Z"/></svg>
